X:0
T:Staten Island
G:reel, country dance
M:C|
L:1/8
Q:1/2=108
K:D
AG|FDFG A2A2|dfed dcBA|B2GB  A2FA |G2E2  E2AG |
   FDFG A2A2|dfed dcBA|d2d2  efge |f2d2  d2  :|
fg|a2fa g2eg|f2df ecA2|=c2c2 e=fge|=c2c2 e=fge|
   a2fa g2eg|f2df ecA2|d2d2  efge |f2d2  d2  :|

That tune may have been around for a while, but it still sounds more like a
joke that caught on than an organic outgrowth of the older Scottish idiom.

The next piece may have started out as a double tonic tune, but has ended
up alternating between G mixolydian and almost every imaginable tonality
with the same key signature.  It's heptatonic, perhaps a transcription of
a Lowland pipe tune, but whereas almost all pipe tunes set a definite tonal
centre in the odd-numbered bars, this one does it in the even-numbered ones.
(The title means "the well-filled codpiece").

